X:1
T:Boys Of Ballycastle, The
M:4/4
L:1/8
R:hornpipe
C:Traditional
K:Em
ef | gf ed ed Bd | e2 (3efg B2 BA | GF GA BA Bd | e2 A2 A2 ga |
ba gf gf ed | e2 (3efg B2 BA | GF GA (3BcB (3ABA | G2 E2 E2 :|
|: gf | eB BA B2 gf | eB BA B2 gf | ed ef gf ga | be ed e2 ga  |
ba gf gf ed | ed (3efg B2 BA | GF GA (3BcB (3ABA | G2 E2 E2 :|

